src/components/content4/img.svg

<svg viewBox="0 0 412 312" fill="none" xmlns="http://www.w3.org/2000/svg"><path d="M154.616 304c73.631 0 133.321-64.471 133.321-144S228.247 16 154.616 16C80.9843 16 21.2943 80.471 21.2943 160s59.69 144 133.3217 144Z" fill="#F2F2F2"/><path d="M176.01 181.957C146.654 230.834 154.698 293 154.698 293s55.639-17.08 84.995-65.957C269.049 178.166 261.006 116 261.006 116s-55.64 17.08-84.996 65.957Z" fill="#379964"/><path d="M154.607 292s-.718-.123-2.041-.411c-1.056-.23-2.509-.559-4.283-1.011-15.86-4.02-58.0273-17.609-85.5957-53.337C28.1828 192.503 29.6357 130 29.6357 130s52.7586 9.216 87.5233 49.391c1.506 1.726 2.972 3.516 4.397 5.368 30.023 38.926 32.822 91.301 33.044 104.249.03 1.94.007 2.992.007 2.992Z" fill="#0D4C0F"/><path clip-rule="evenodd" d="M133.221 181.957C162.577 230.834 154.533 293 154.533 293s-55.6386-17.08-84.9946-65.957C40.1823 178.166 48.2259 116 48.2259 116s55.6391 17.08 84.9951 65.957Z" stroke="#379964" stroke-width="2"/><path opacity=".1" d="M154.616 290.056c-.778 1.015-1.464 1.882-2.028 2.592-1.25 1.543-1.959 2.352-1.959 2.352s-.862-1.172-2.31-3.368c-7.952-12.001-33.529-54.673-31.554-103.964.106-2.584.282-5.14.526-7.668 1.501 1.733 2.963 3.53 4.383 5.39 29.93 39.081 32.721 91.666 32.942 104.666Z" fill="#000"/><path d="M198.948 191.281C196.607 249.547 156.395 295 156.395 295s-36.416-49.015-34.075-107.281C124.661 129.453 164.873 84 164.873 84s36.416 49.015 34.075 107.281Z" fill="#0D4C0F"/><path d="M156.468 293 164.8 86" stroke="#379964" stroke-width="2"/><path d="M206 312c113.771 0 206-6.268 206-14s-92.229-14-206-14C92.2293 284 0 290.268 0 298s92.2293 14 206 14ZM34.2563 293v-56 56Z" fill="#379964"/><path d="M34.2563 293v-56" stroke="#379964" stroke-width="2"/><path d="M34.2564 245c4.0906 0 7.4067-3.582 7.4067-8s-3.3161-8-7.4067-8c-4.0907 0-7.4068 3.582-7.4068 8s3.3161 8 7.4068 8ZM34.2562 272s-1.0335-24.632-22.2202-21.768L34.2562 272ZM211.092 202V46v156Z" fill="#379964"/><path d="M211.092 202V46" stroke="#379964" stroke-width="2"/><path d="M211.092 58c5.625 0 10.184-4.9249 10.184-11s-4.559-11-10.184-11c-5.625 0-10.184 4.9249-10.184 11s4.559 11 10.184 11ZM211.092 91s-1.421-33.5884-30.553-29.6842L211.092 91Z" fill="#379964"/><path d="m331.716 116-8.681 17.635s-62.773 12.956-54.76 33.11c8.014 20.154 17.029 49.665 21.704 48.946 4.674-.72 30.384-16.555 31.386-21.234 1.002-4.679-23.039-26.632-23.039-26.632l39.734-8.278s5.676 28.792-1.669 48.586c-7.346 19.794-11.687 73.418-6.678 74.138 5.008.72 17.696 5.039 23.372 1.08 5.677-3.959 8.348-90.694 8.348-90.694s12.02-56.863 4.675-63.341C358.762 122.838 331.716 116 331.716 116Z" fill="#3A622F"/><path d="M345.286 274.257s-7.758-4.424-9.391-.885c0 0 1.225 10.618-3.674 11.945s-6.941 10.618 0 11.502c6.941.885 11.432-1.769 13.881-1.769 2.45 0 0-9.291 0-9.291l-.816-11.502ZM308.273 201.835s-8.452-2.56-9.36 1.285c0 0 3.266 10.134-1.269 12.559-4.535 2.425-4.723 12.006 2.241 11.282 6.963-.723 10.841-4.357 13.237-4.918 2.397-.562-1.809-9.113-1.809-9.113l-3.04-11.095Z" fill="#3A622F"/><path d="M350.335 53.8587s.329 13.43-1.979 14.5189C346.047 69.4665 361.218 76 361.218 76l2.638-5.0816s-2.968-18.1486-2.309-19.6005c.66-1.4519-11.212 2.5408-11.212 2.5408Z" fill="#9F616A"/><path d="M355.523 57c11.25 0 20.369-9.8497 20.369-22s-9.119-22-20.369-22c-11.249 0-20.368 9.8497-20.368 22s9.119 22 20.368 22Z" fill="#3A622F"/><path d="M357.375 23c4.602 0 8.333-4.0294 8.333-9 0-4.97056-3.731-9-8.333-9s-8.333 4.02944-8.333 9c0 4.9706 3.731 9 8.333 9Z" fill="#3A622F"/><path d="M346.16 9c.001-4.60757 3.243-8.470956 7.512-8.951337-.29-.03234-.582-.0485826-.873-.048663-4.631 0-8.385 4.02944-8.385 9 0 4.9706 3.754 9 8.385 9 .291-.0001.583-.0163.873-.0487-4.269-.4803-7.511-4.3437-7.512-8.9513Z" fill="#3A622F"/><path d="M354.598 61c7.67 0 13.887-6.7157 13.887-15s-6.217-15-13.887-15c-7.67 0-13.888 6.7157-13.888 15s6.218 15 13.888 15Z" fill="#9F616A"/><path d="M365.014 65.8094s-11.993 3.9403-17.99 0c-5.997-3.9404-20.322 7.5224-22.654 12.5374-2.332 5.015 8.662 10.03 8.662 10.03s-3.14 9.6843-2.499 14.5072c.666 5.015-.5 15.224-.5 15.224s29.433 20.85 35.981 11.463c.999-1.433 9.328-35.1046 9.328-35.1046l11.66-12.5375s-7.329-11.4628-11.66-12.5374c-4.331-1.0746-10.328-3.5821-10.328-3.5821Z" fill="#D0CDE1"/><path d="M284.175 139s-22.454 12.838-17.831 16.506c4.623 3.668 23.445-14.305 23.445-14.305L284.175 139ZM373.043 129.939s-10.181-7.717-11.82-3.859c-1.639 3.859 11.147 12.547 13.838 9.147 2.692-3.4-2.018-5.288-2.018-5.288Z" fill="#9F616A"/><path d="m381.233 77 5.937 3.9883s20.122 30.4557 13.195 37.3447c-6.927 6.889-24.74 20.667-24.74 20.667s-5.937-9.427-3.958-9.789c1.979-.363 17.812-14.866 17.812-14.866l-13.854-28.2807L381.233 77ZM327.915 76l-4.321 1.8105-11.3 22.0883-29.912 39.4692s3.988 6.88 7.312 5.432c3.323-1.449 28.25-31.865 28.25-31.865l16.285-27.5203L327.915 76Z" fill="#D0CDE1"/><path d="M355.986 37c7.926 0 14.351-4.0294 14.351-9s-6.425-9-14.351-9c-7.925 0-14.35 4.0294-14.35 9s6.425 9 14.35 9Z" fill="#3A622F"/><path fill="#0D4C0F" d="M261.088 223h65.7348v71H261.088z"/><path fill-rule="evenodd" clip-rule="evenodd" d="M306.33 272.409c6.883 0 11.234-6.322 11.234-16.354 0-13.646-9.679-23.055-23.646-23.055-14.531 0-24.498 10.587-24.498 26.006 0 15.799 9.767 25.98 25.025 25.993 2.644.014 5.281-.294 7.861-.921 1.047-.273 1.7-1.398 1.472-2.534-.228-1.136-1.255-1.868-2.312-1.649-2.252.429-4.534.637-6.82.623-12.55 0-20.612-8.312-20.612-21.336 0-12.739 8.149-21.742 19.583-21.742 11.56 0 19.383 7.541 19.383 18.818 0 7.067-2.206 11.616-5.679 11.616-2.006 0-3.122-1.314-3.122-3.493v-17.505h-5.002v3.764h-.502c-1.153-2.748-3.774-4.427-6.858-4.427-6.005 0-10.118 5.266-10.118 12.834 0 7.879 4.088 13.172 10.206 13.172 3.435 0 5.993-1.719 7.234-4.86h.501c.464 3.019 3.147 5.05 6.67 5.05Zm-13.477-5.199c-3.549 0-5.73-3.032-5.73-8.041 0-5.023 2.144-7.974 5.792-7.974 3.674 0 6.031 3.046 6.031 7.974 0 4.927-2.357 8.041-6.093 8.041Z" fill="#fff"/></svg>

<svg viewBox="0 0 412 312" fill="none" xmlns="http://www.w3.org/2000/svg">
<path d="M154.616 304C228.247 304 287.937 239.529 287.937 160C287.937 80.471 228.247 16 154.616 16C80.9843 16 21.2943 80.471 21.2943 160C21.2943 239.529 80.9843 304 154.616 304Z" fill="#F2F2F2"/>
<path d="M176.01 181.957C146.654 230.834 154.698 293 154.698 293C154.698 293 210.337 275.92 239.693 227.043C269.049 178.166 261.006 116 261.006 116C261.006 116 205.366 133.08 176.01 181.957Z" fill="#379964"/>
<path d="M154.607 292C154.607 292 153.889 291.877 152.566 291.589C151.51 291.359 150.057 291.03 148.283 290.578C132.423 286.558 90.2557 272.969 62.6873 237.241C28.1828 192.503 29.6357 130 29.6357 130C29.6357 130 82.3943 139.216 117.159 179.391C118.665 181.117 120.131 182.907 121.556 184.759C151.579 223.685 154.378 276.06 154.6 289.008C154.63 290.948 154.607 292 154.607 292Z" fill="#0D4C0F"/>
<path fill-rule="evenodd" clip-rule="evenodd" d="M133.221 181.957C162.577 230.834 154.533 293 154.533 293C154.533 293 98.8944 275.92 69.5384 227.043C40.1823 178.166 48.2259 116 48.2259 116C48.2259 116 103.865 133.08 133.221 181.957Z" stroke="#379964" stroke-width="2"/>
<path opacity="0.1" d="M154.616 290.056C153.838 291.071 153.152 291.938 152.588 292.648C151.338 294.191 150.629 295 150.629 295C150.629 295 149.767 293.828 148.319 291.632C140.367 279.631 114.79 236.959 116.765 187.668C116.871 185.084 117.047 182.528 117.291 180C118.792 181.733 120.254 183.53 121.674 185.39C151.604 224.471 154.395 277.056 154.616 290.056Z" fill="black"/>
<path d="M198.948 191.281C196.607 249.547 156.395 295 156.395 295C156.395 295 119.979 245.985 122.32 187.719C124.661 129.453 164.873 84 164.873 84C164.873 84 201.289 133.015 198.948 191.281Z" fill="#0D4C0F"/>
<path d="M156.468 293L164.8 86" stroke="#379964" stroke-width="2"/>
<path d="M206 312C319.771 312 412 305.732 412 298C412 290.268 319.771 284 206 284C92.2293 284 0 290.268 0 298C0 305.732 92.2293 312 206 312Z" fill="#379964"/>
<path d="M34.2563 293V237V293Z" fill="#379964"/>
<path d="M34.2563 293V237" stroke="#379964" stroke-width="2"/>
<path d="M34.2564 245C38.347 245 41.6631 241.418 41.6631 237C41.6631 232.582 38.347 229 34.2564 229C30.1657 229 26.8496 232.582 26.8496 237C26.8496 241.418 30.1657 245 34.2564 245Z" fill="#379964"/>
<path d="M34.2562 272C34.2562 272 33.2227 247.368 12.036 250.232L34.2562 272Z" fill="#379964"/>
<path d="M211.092 202V46V202Z" fill="#379964"/>
<path d="M211.092 202V46" stroke="#379964" stroke-width="2"/>
<path d="M211.092 58C216.717 58 221.276 53.0751 221.276 47C221.276 40.9249 216.717 36 211.092 36C205.467 36 200.908 40.9249 200.908 47C200.908 53.0751 205.467 58 211.092 58Z" fill="#379964"/>
<path d="M211.092 91C211.092 91 209.671 57.4116 180.539 61.3158L211.092 91Z" fill="#379964"/>
<path d="M331.716 116L323.035 133.635C323.035 133.635 260.262 146.591 268.275 166.745C276.289 186.899 285.304 216.41 289.979 215.691C294.653 214.971 320.363 199.136 321.365 194.457C322.367 189.778 298.326 167.825 298.326 167.825L338.06 159.547C338.06 159.547 343.736 188.339 336.391 208.133C329.045 227.927 324.704 281.551 329.713 282.271C334.721 282.991 347.409 287.31 353.085 283.351C358.762 279.392 361.433 192.657 361.433 192.657C361.433 192.657 373.453 135.794 366.108 129.316C358.762 122.838 331.716 116 331.716 116Z" fill="#3A622F"/>
<path d="M345.286 274.257C345.286 274.257 337.528 269.833 335.895 273.372C335.895 273.372 337.12 283.99 332.221 285.317C327.322 286.644 325.28 295.935 332.221 296.819C339.162 297.704 343.653 295.05 346.102 295.05C348.552 295.05 346.102 285.759 346.102 285.759L345.286 274.257Z" fill="#3A622F"/>
<path d="M308.273 201.835C308.273 201.835 299.821 199.275 298.913 203.12C298.913 203.12 302.179 213.254 297.644 215.679C293.109 218.104 292.921 227.685 299.885 226.961C306.848 226.238 310.726 222.604 313.122 222.043C315.519 221.481 311.313 212.93 311.313 212.93L308.273 201.835Z" fill="#3A622F"/>
<path d="M350.335 53.8587C350.335 53.8587 350.664 67.2887 348.356 68.3776C346.047 69.4665 361.218 76 361.218 76L363.856 70.9184C363.856 70.9184 360.888 52.7698 361.547 51.3179C362.207 49.866 350.335 53.8587 350.335 53.8587Z" fill="#9F616A"/>
<path d="M355.523 57C366.773 57 375.892 47.1503 375.892 35C375.892 22.8497 366.773 13 355.523 13C344.274 13 335.155 22.8497 335.155 35C335.155 47.1503 344.274 57 355.523 57Z" fill="#3A622F"/>
<path d="M357.375 23C361.977 23 365.708 18.9706 365.708 14C365.708 9.02944 361.977 5 357.375 5C352.773 5 349.042 9.02944 349.042 14C349.042 18.9706 352.773 23 357.375 23Z" fill="#3A622F"/>
<path d="M346.16 9C346.161 4.39243 349.403 0.529044 353.672 0.048663C353.382 0.016323 353.09 8.04062e-05 352.799 0C348.168 0 344.414 4.02944 344.414 9C344.414 13.9706 348.168 18 352.799 18C353.09 17.9999 353.382 17.9837 353.672 17.9513C349.403 17.471 346.161 13.6076 346.16 9Z" fill="#3A622F"/>
<path d="M354.598 61C362.268 61 368.485 54.2843 368.485 46C368.485 37.7157 362.268 31 354.598 31C346.928 31 340.71 37.7157 340.71 46C340.71 54.2843 346.928 61 354.598 61Z" fill="#9F616A"/>
<path d="M365.014 65.8094C365.014 65.8094 353.021 69.7497 347.024 65.8094C341.027 61.869 326.702 73.3318 324.37 78.3468C322.038 83.3618 333.032 88.3768 333.032 88.3768C333.032 88.3768 329.892 98.0611 330.533 102.884C331.199 107.899 330.033 118.108 330.033 118.108C330.033 118.108 359.466 138.958 366.014 129.571C367.013 128.138 375.342 94.4664 375.342 94.4664L387.002 81.9289C387.002 81.9289 379.673 70.4661 375.342 69.3915C371.011 68.3169 365.014 65.8094 365.014 65.8094Z" fill="#D0CDE1"/>
<path d="M284.175 139C284.175 139 261.721 151.838 266.344 155.506C270.967 159.174 289.789 141.201 289.789 141.201L284.175 139Z" fill="#9F616A"/>
<path d="M373.043 129.939C373.043 129.939 362.862 122.222 361.223 126.08C359.584 129.939 372.37 138.627 375.061 135.227C377.753 131.827 373.043 129.939 373.043 129.939Z" fill="#9F616A"/>
<path d="M381.233 77L387.17 80.9883C387.17 80.9883 407.292 111.444 400.365 118.333C393.438 125.222 375.625 139 375.625 139C375.625 139 369.688 129.573 371.667 129.211C373.646 128.848 389.479 114.345 389.479 114.345L375.625 86.0643L381.233 77Z" fill="#D0CDE1"/>
<path d="M327.915 76L323.594 77.8105L312.294 99.8988L282.382 139.368C282.382 139.368 286.37 146.248 289.694 144.8C293.017 143.351 317.944 112.935 317.944 112.935L334.229 85.4147L327.915 76Z" fill="#D0CDE1"/>
<path d="M355.986 37C363.912 37 370.337 32.9706 370.337 28C370.337 23.0294 363.912 19 355.986 19C348.061 19 341.636 23.0294 341.636 28C341.636 32.9706 348.061 37 355.986 37Z" fill="#3A622F"/>
<rect x="261.088" y="223" width="65.7348" height="71" fill="#0D4C0F"/>
<path fill-rule="evenodd" clip-rule="evenodd" d="M306.33 272.409C313.213 272.409 317.564 266.087 317.564 256.055C317.564 242.409 307.885 233 293.918 233C279.387 233 269.42 243.587 269.42 259.006C269.42 274.805 279.187 284.986 294.445 284.999C297.089 285.013 299.726 284.705 302.306 284.078C303.353 283.805 304.006 282.68 303.778 281.544C303.55 280.408 302.523 279.676 301.466 279.895C299.214 280.324 296.932 280.532 294.646 280.518C282.096 280.518 274.034 272.206 274.034 259.182C274.034 246.443 282.183 237.44 293.617 237.44C305.177 237.44 313 244.981 313 256.258C313 263.325 310.794 267.874 307.321 267.874C305.315 267.874 304.199 266.56 304.199 264.381V246.876H299.197V250.64H298.695C297.542 247.892 294.921 246.213 291.837 246.213C285.832 246.213 281.719 251.479 281.719 259.047C281.719 266.926 285.807 272.219 291.925 272.219C295.36 272.219 297.918 270.5 299.159 267.359H299.66C300.124 270.378 302.807 272.409 306.33 272.409ZM292.853 267.21C289.304 267.21 287.123 264.178 287.123 259.169C287.123 254.146 289.267 251.195 292.915 251.195C296.589 251.195 298.946 254.241 298.946 259.169C298.946 264.096 296.589 267.21 292.853 267.21Z" fill="white"/>
</svg>
